Numix-GalliumOS/16/categories/applications-drawing.svg

<?xml version="1.0" encoding="UTF-8" standalone="no"?>
<svg
   xmlns:dc="http://purl.org/dc/elements/1.1/"
   xmlns:cc="http://creativecommons.org/ns#"
   xmlns:rdf="http://www.w3.org/1999/02/22-rdf-syntax-ns#"
   xmlns:svg="http://www.w3.org/2000/svg"
   xmlns="http://www.w3.org/2000/svg"
   xmlns:sodipodi="http://sodipodi.sourceforge.net/DTD/sodipodi-0.dtd"
   xmlns:inkscape="http://www.inkscape.org/namespaces/inkscape"
   width="16"
   height="16"
   viewBox="0 0 16 16"
   id="svg2"
   version="1.1"
   inkscape:version="0.91 r"
   sodipodi:docname="xfce-graphics.svg">
  <metadata
     id="metadata14">
    <rdf:RDF>
      <cc:Work
         rdf:about="">
        <dc:format>image/svg+xml</dc:format>
        <dc:type
           rdf:resource="http://purl.org/dc/dcmitype/StillImage" />
      </cc:Work>
    </rdf:RDF>
  </metadata>
  <defs
     id="defs12" />
  <sodipodi:namedview
     pagecolor="#ffffff"
     bordercolor="#666666"
     borderopacity="1"
     objecttolerance="10"
     gridtolerance="10"
     guidetolerance="10"
     inkscape:pageopacity="0"
     inkscape:pageshadow="2"
     inkscape:window-width="1920"
     inkscape:window-height="1056"
     id="namedview10"
     showgrid="true"
     inkscape:zoom="29.5"
     inkscape:cx="9.7287842"
     inkscape:cy="4.505481"
     inkscape:window-x="0"
     inkscape:window-y="24"
     inkscape:window-maximized="1"
     inkscape:current-layer="svg2">
    <inkscape:grid
       type="xygrid"
       id="grid4142" />
  </sodipodi:namedview>
  <g
     style="fill:#f2469c"
     id="g4">
    <path
       d="M 12.667969 3.035156 L 6.875 11.054688 C 6.40625 11.046875 5.769531 10.679688 5.453125 10.332031 L 11.878906 2.691406 C 12.308594 2.613281 12.574219 2.726562 12.667969 3.035156 Z "
       id="path6" />
    <path
       d="M 5.546875 12.28125 C 6.21875 12.210938 7.257812 11.539062 6.773438 10.570312 C 5.605469 10.3125 5.871094 10.179688 5.871094 10.179688 C 4.269531 10.476562 3.054688 11.90625 3.390625 12.816406 C 3.601562 13.390625 3.566406 13.332031 3.566406 13.332031 C 4.011719 12.21875 4.019531 12.421875 5.546875 12.28125 Z "
       id="path8" />
  </g>
</svg>

<svg xmlns="http://www.w3.org/2000/svg" viewBox="0 0 16 16">
 <g style="fill:#f2469c">
  <path d="m 12.668 3.035 l -5.793 8.02 c -0.469 -0.008 -1.105 -0.375 -1.422 -0.723 l 6.426 -7.641 c 0.43 -0.078 0.695 0.035 0.789 0.344 Z"/>
  <path d="m 5.547 12.281 c 0.672 -0.07 1.711 -0.742 1.227 -1.711 c -1.168 -0.258 -0.902 -0.391 -0.902 -0.391 c -1.602 0.297 -2.816 1.727 -2.48 2.637 c 0.211 0.574 0.176 0.516 0.176 0.516 c 0.445 -1.113 0.453 -0.91 1.98 -1.051 Z"/>
 </g>
</svg>
